X:1
T:Fiddler's Drunk and the Fun's All Over
S:Henry Reed
M:C|
L:1/8
Z:AK/Fiddler's Companion
K:C
G,2|C2D2E2G2|c2cd cAGB|A2AG A2(A2|A)cAG AGE2|
|C2D2E2G2|c2cd cAGB|A3c AGEG|1 BcdB c3:|2 BcdB c3(e||
|:e3)e e2 (e2|e2)g2 ed c2|A3A A2(A2|A)Bc2 edc2|
e3e e2 (e2|e2)g2 ed c2| A2c2 BA G2|1c4 G2ce:||2 (c4 c2)||
